modules/feathericon/icons/messanger.svg

<?xml version="1.0" encoding="UTF-8"?>
<svg width="24px" height="24px" viewBox="0 0 24 24" version="1.1" xmlns="http://www.w3.org/2000/svg" xmlns:xlink="http://www.w3.org/1999/xlink">
    <!-- Generator: sketchtool 52.2 (67145) - http://www.bohemiancoding.com/sketch -->
    <title>messanger</title>
    <desc>Created with sketchtool.</desc>
    <g id="brand" stroke="none" stroke-width="1" fill="none" fill-rule="evenodd">
        <g id="messanger" fill="#000000">
            <path d="M12.9419305,14.4132711 L10.3816186,11.7534625 L5.45094503,14.4802487 L10.8567589,8.74367787 L13.4170708,11.4034864 L18.3477192,8.67670029 L12.9419305,14.4132711 Z M11.8993321,2 C6.43210743,2 2,6.14444891 2,11.2568612 C2,14.1651845 3.43438829,16.7602069 5.67764614,18.457241 L5.67764614,22 L9.05594606,20.1261138 C9.95655399,20.3782306 10.911016,20.5137223 11.8993321,20.5137223 C17.366582,20.5137223 21.7986642,16.3692734 21.7986642,11.2568612 C21.7986642,6.14444891 17.366582,2 11.8993321,2 L11.8993321,2 Z" id="Shape"></path>
        </g>
    </g>
</svg>

<svg width="24" height="24" viewBox="0 0 24 24" xmlns="http://www.w3.org/2000/svg"><path d="M12.942 14.413l-2.56-2.66L5.45 14.48l5.406-5.736 2.56 2.66 4.93-2.727-5.405 5.736zM11.899 2C6.432 2 2 6.144 2 11.257c0 2.908 1.434 5.503 3.678 7.2V22l3.378-1.874c.9.252 1.855.388 2.843.388 5.468 0 9.9-4.145 9.9-9.257 0-5.113-4.432-9.257-9.9-9.257z" fill="#000" fill-rule="evenodd"/></svg>
